images/icons/tel.svg

<?xml version="1.0" encoding="UTF-8"?>
<svg width="24px" height="24px" viewBox="0 0 24 24" version="1.1" xmlns="http://www.w3.org/2000/svg" xmlns:xlink="http://www.w3.org/1999/xlink">
    <title>icon-phone</title>
    <g id="Design" stroke="none" stroke-width="1" fill="none" fill-rule="evenodd">
        <g id="XL" transform="translate(-855.000000, -7072.000000)" fill="#2FBEFF" fill-rule="nonzero">
            <g id="Group-33" transform="translate(0.000000, 6964.000000)">
                <g id="Group-7-Copy" transform="translate(855.000000, 50.000000)">
                    <path d="M17.2487916,82 C16.4740697,82 15.7059101,81.8630369 14.9547654,81.5901418 C11.6456042,80.3880349 8.57399678,78.4301464 6.0719,75.9281084 C3.56980321,73.4260704 1.61190545,70.3544308 0.409839655,67.0452853 C0.0235567852,65.9818289 -0.0904390818,64.8840614 0.0711331853,63.7823566 C0.222487073,62.7503989 0.62222258,61.7485806 1.2271694,60.8851785 C1.83478799,60.0179797 2.64485237,59.2966968 3.56975634,58.7993266 C4.55606433,58.2689577 5.63260342,58 6.7695622,58 C7.12317438,58 7.4287883,58.247068 7.50289499,58.5928038 L8.68007106,64.0862816 C8.733366,64.335037 8.65691565,64.5938702 8.4770628,64.773769 L6.46558885,66.7851865 C8.3631138,70.5578131 11.4421272,73.6368118 15.2147716,75.5343277 L17.2261987,73.5228633 C17.4060984,73.3430113 17.6649797,73.2666551 17.9136894,73.319856 L23.4071934,74.4970265 C23.7529777,74.5711328 24,74.8767453 24,75.2303558 C24,76.3673092 23.731041,77.44389 23.2006227,78.4301933 C22.7032501,79.3550929 21.9819638,80.1651534 21.1147609,80.7727691 C20.2514015,81.377713 19.2495785,81.7774466 18.217569,81.9287998 C17.8941901,81.9762822 17.5708581,82 17.2487916,82 L17.2487916,82 Z M6.17033393,59.5327496 C4.67062268,59.6983053 3.33951469,60.4843669 2.45557799,61.7459557 C1.46158277,63.1645694 1.2297943,64.9094197 1.81964792,66.5331969 C4.13068913,72.8950922 9.10493066,77.86931 15.4668563,80.1803403 C17.0905943,80.7701911 18.8354529,80.5384506 20.2541202,79.5444132 C21.5157151,78.6604807 22.3017803,77.3293791 22.4673368,75.829675 L17.9983895,74.872058 L15.8977156,76.9727218 C15.6741769,77.1962595 15.3345329,77.2556477 15.048512,77.1212157 C10.5866426,75.0250517 6.97496101,71.4133873 4.878787,66.9515391 C4.74440125,66.6654727 4.80374285,66.3258304 5.02728162,66.1023396 L7.12795546,64.0016757 L6.17033393,59.5327496 Z" id="icon-phone"></path>
                </g>
            </g>
        </g>
    </g>
</svg>

<svg width="24" height="24" xmlns="http://www.w3.org/2000/svg"><g id="Design" stroke="none" stroke-width="1" fill="none" fill-rule="evenodd"><g id="XL" transform="translate(-855 -7072)" fill="#2FBEFF" fill-rule="nonzero"><g id="Group-33" transform="translate(0 6964)"><g id="Group-7-Copy" transform="translate(855 50)"><path d="M17.249 82a6.687 6.687 0 01-2.294-.41 24.462 24.462 0 01-8.883-5.662A24.46 24.46 0 01.41 67.045a6.638 6.638 0 01-.339-3.263 6.795 6.795 0 011.156-2.897A6.823 6.823 0 013.57 58.8a6.687 6.687 0 013.2-.799.75.75 0 01.733.593l1.177 5.493a.75.75 0 01-.203.688l-2.011 2.011a19.741 19.741 0 008.749 8.75l2.011-2.012a.75.75 0 01.688-.203l5.493 1.177a.75.75 0 01.593.733 6.683 6.683 0 01-.8 3.2 6.823 6.823 0 01-2.085 2.343 6.795 6.795 0 01-2.897 1.156 6.664 6.664 0 01-.97.071zM6.17 59.533a5.19 5.19 0 00-3.714 2.213 5.167 5.167 0 00-.636 4.787A22.748 22.748 0 0015.467 80.18a5.167 5.167 0 004.787-.636 5.195 5.195 0 002.213-3.714l-4.469-.958-2.1 2.1a.75.75 0 01-.85.15 21.236 21.236 0 01-10.17-10.17.75.75 0 01.15-.85l2.1-2.1-.958-4.47z" id="icon-phone"/></g></g></g></g></svg>
